X:17239
T:The Star of Munster
M:4/4
L:1/8
Q:220
C:Trad Irish
K:A Dor
|c2 Ac B2 GB|AGEF GEDF|EAAB cBcd|eaaf gfed|!
cBAc BAGB|AGEF GEDF|EAAB cded|1]cABG A2 ed:|2]cABG A3 z||!
eaab ageg|agbg agef|gfga gfef|geaf gfed|!
eaab ageg|agbg agef|g2 ge a2 ag|b2 ba gfed:|!
